icons/svg/call-log-active_20.svg

<?xml version="1.0" encoding="UTF-8"?>
<svg width="20px" height="20px" viewBox="0 0 20 20" version="1.1" xmlns="http://www.w3.org/2000/svg" xmlns:xlink="http://www.w3.org/1999/xlink">
    <!-- Generator: Sketch 59.1 (86144) - https://sketch.com -->
    <title>call-log-active_20</title>
    <desc>Created with Sketch.</desc>
    <g id="New-Icon" stroke="none" stroke-width="1" fill="none" fill-rule="evenodd">
        <g id="call-log-active_20" fill="#171B1F">
            <path d="M4.7621,2.4993 C5.5141,2.4993 6.1941,2.9473 6.4911,3.6383 L7.1891,5.2603 C7.4631,5.8963 7.4421,6.6223 7.1321,7.2413 L6.6611,8.1823 C6.4971,8.5103 6.5401,8.9013 6.7661,9.1913 C7.8491,10.5853 9.3871,12.0683 10.8201,13.2183 C11.1091,13.4503 11.5041,13.4963 11.8351,13.3303 L12.7591,12.8683 C13.3791,12.5583 14.1031,12.5373 14.7401,12.8113 L16.3621,13.5083 C17.0521,13.8053 17.5001,14.4853 17.5001,15.2373 L17.5001,17.0833 C17.5001,18.0003 16.6391,18.6823 15.7501,18.4563 C13.0101,17.7603 9.8551,15.8223 7.0161,12.9833 C4.1781,10.1453 2.2391,6.9903 1.5431,4.2493 C1.3181,3.3603 2.0001,2.4993 2.9161,2.4993 L4.7621,2.4993 Z M12.9999,1.4993 C16.0379,1.4993 18.4999,3.9623 18.4999,6.9993 C18.4999,8.1773 18.1299,9.2683 17.4999,10.1623 L17.4999,10.1623 C17.4989,10.1643 17.4979,10.1653 17.4969,10.1673 C17.3799,10.3323 17.2539,10.4883 17.1219,10.6383 C17.0799,10.6853 17.0349,10.7283 16.9919,10.7733 C16.9199,10.8493 16.8509,10.9283 16.7749,10.9993 L16.7749,10.9993 C16.3429,11.3963 15.8449,11.7163 15.3099,11.9673 L15.3099,11.9673 L15.1349,11.8923 C14.7139,11.7113 14.2689,11.6203 13.8109,11.6203 C13.2929,11.6203 12.7749,11.7423 12.3119,11.9743 L12.3119,11.9743 L11.6219,12.3193 C11.4519,12.2743 11.2849,12.2233 11.1219,12.1643 C9.8959,11.1463 8.7279,9.9913 7.8579,8.9383 C7.7899,8.7563 7.7299,8.5693 7.6809,8.3783 L7.6809,8.3783 L8.0259,7.6883 C8.4689,6.8033 8.4989,5.7743 8.1069,4.8653 L8.1069,4.8653 L8.0249,4.6733 C8.1619,4.3813 8.3159,4.0993 8.4999,3.8373 L8.4999,3.8373 L8.5014,3.8348 C8.6199,3.6683 8.7459,3.5113 8.8789,3.3613 C8.9189,3.3143 8.9639,3.2723 9.0069,3.2273 C9.0789,3.1513 9.1489,3.0723 9.2249,2.9993 L9.2249,2.9993 C10.2159,2.0753 11.5389,1.4993 12.9999,1.4993 Z M12.9999,4.4993 C12.7239,4.4993 12.4999,4.7233 12.4999,4.9993 L12.4999,4.9993 L12.4999,7.4993 C12.4999,7.6323 12.5529,7.7593 12.6469,7.8533 L12.6469,7.8533 L14.1469,9.3533 C14.2449,9.4513 14.3729,9.4993 14.4999,9.4993 C14.6279,9.4993 14.7559,9.4513 14.8539,9.3533 C15.0489,9.1583 15.0489,8.8413 14.8539,8.6463 L14.8539,8.6463 L13.4999,7.2923 L13.4999,4.9993 C13.4999,4.7233 13.2769,4.4993 12.9999,4.4993 Z" id="fill"></path>
        </g>
    </g>
</svg>

<svg width="20" height="20" xmlns="http://www.w3.org/2000/svg"><path d="M4.762 2.5c.752 0 1.432.447 1.73 1.138l.697 1.622a2.35 2.35 0 01-.057 1.981l-.47.941a.949.949 0 00.104 1.01c1.083 1.393 2.621 2.876 4.054 4.026a.944.944 0 001.015.112l.924-.462a2.35 2.35 0 011.981-.057l1.622.697c.69.297 1.138.977 1.138 1.73v1.845a1.41 1.41 0 01-1.75 1.373c-2.74-.696-5.895-2.634-8.734-5.473C4.178 10.145 2.24 6.99 1.543 4.25A1.411 1.411 0 012.916 2.5h1.846zM13 1.5a5.5 5.5 0 014.5 8.662l-.003.005a5.736 5.736 0 01-.375.471c-.042.047-.087.09-.13.135-.072.076-.141.155-.217.226-.432.397-.93.717-1.465.968l-.175-.075a3.361 3.361 0 00-2.823.082l-.69.345a5.917 5.917 0 01-.5-.155c-1.226-1.018-2.394-2.173-3.264-3.226a5.524 5.524 0 01-.177-.56l.345-.69a3.34 3.34 0 00.08-2.823l-.081-.192c.137-.292.29-.574.475-.836l.001-.002c.119-.167.245-.324.378-.474.04-.047.085-.089.128-.134.072-.076.142-.155.218-.228A5.52 5.52 0 0113 1.5zm0 3a.5.5 0 00-.5.5v2.5a.5.5 0 00.147.353l1.5 1.5a.497.497 0 00.707 0 .5.5 0 000-.707L13.5 7.292V5a.5.5 0 00-.5-.5z" fill="#171B1F" fill-rule="evenodd"/></svg>
